X:1
T:Tommy Gunn's
M:4/4
L:1/8
S:L. Nugent: Windy Gap, Trk. 2, there in A flat (E flat whistle)
R:reel
Z:Ed Wosika
K:G
"Part A"EF | G2BG AGBG | G2BG AGEF | ~G2A GAA2 | BAGE EDDE |
G2BG AGBG | G2BG AGEF | ~G2A ~e4 | GEed ~BAA2 ||:
"Part B"dedB (AG(3GAB) | dzdB ~BAA2 | dedg ~a3z |1AGGe edd2 |2 bage ~edd2 :|
"Part C"dgbg agbg | dgbg agef | gzge d2dB | GAed BAA2 ::
"Part D"~ed~bg ~ed~bd | ~ed~BA ~GE~E2 | ~ed~bg ~ed~bd | ~e3d BAA2 |
~ed~bg ~ed~bd | ~ed~BA ~GE~E2 | (ed(3.B.c.d) (~g2(3.d.d.d) | egGA BeGA ||
